src/pos-icons/power-standby.svg

<svg height="24" viewBox="0 0 24 24" width="24" xmlns="http://www.w3.org/2000/svg"><path d="m13 3h-2v10h2zm4.83 2.17-1.42 1.42c1.64 1.32 2.59 3.31 2.59 5.41a7 7 0 0 1 -7 7c-3.86 0-7-3.12-7-7 0-2.09.95-4.09 2.58-5.42l-1.41-1.41c-3.79 3.22-4.25 8.9-1.03 12.69 3.22 3.78 8.9 4.24 12.69 1.02 2.02-1.71 3.17-4.23 3.17-6.88 0-2.63-1.16-5.13-3.17-6.83z"/></svg>

<?xml version="1.0" encoding="UTF-8"?><!DOCTYPE svg PUBLIC "-//W3C//DTD SVG 1.1//EN" "http://www.w3.org/Graphics/SVG/1.1/DTD/svg11.dtd"><svg xmlns="http://www.w3.org/2000/svg" xmlns:xlink="http://www.w3.org/1999/xlink" version="1.1" id="mdi-power-standby" width="24" height="24" viewBox="0 0 24 24"><path d="M13,3H11V13H13V3M17.83,5.17L16.41,6.59C18.05,7.91 19,9.9 19,12A7,7 0 0,1 12,19C8.14,19 5,15.88 5,12C5,9.91 5.95,7.91 7.58,6.58L6.17,5.17C2.38,8.39 1.92,14.07 5.14,17.86C8.36,21.64 14.04,22.1 17.83,18.88C19.85,17.17 21,14.65 21,12C21,9.37 19.84,6.87 17.83,5.17Z" /></svg>
